src/assets/emoji/noto-emoji/1F4EA.svg

<svg enable-background="new 0 0 128 128" viewBox="0 0 128 128" xmlns="http://www.w3.org/2000/svg" xmlns:xlink="http://www.w3.org/1999/xlink"><linearGradient id="h" x1="63.75" x2="63.75" y1="92.167" y2="124.84" gradientUnits="userSpaceOnUse"><stop stop-color="#757575" offset=".2748"/><stop stop-color="#BDBDBD" offset=".9927"/></linearGradient><rect x="54.75" y="84" width="18" height="40" fill="url(#h)"/><g opacity=".2"><path d="m69.75 87v34h-12v-34h12m3-3h-18v40h18v-40z" fill="#444"/></g><linearGradient id="g" x1="-106.59" x2="-106.59" y1="56.71" y2="124.21" gradientUnits="userSpaceOnUse"><stop stop-color="#FFC107" offset="0"/><stop stop-color="#FFD54F" offset="1"/></linearGradient><path d="m-50.59 123.88h-112c-2.21 0-4-1.79-4-4v-72c0-2.21 1.79-4 4-4h112c2.21 0 4 1.79 4 4v72c0 2.21-1.79 4-4 4z" fill="url(#g)"/><linearGradient id="f" x1="-106.59" x2="-106.59" y1="44.665" y2="107.09" gradientUnits="userSpaceOnUse"><stop stop-color="#FFE082" offset="0"/><stop stop-color="#FFCA28" offset=".9931"/></linearGradient><path d="m-46.59 50.04v-2.16c0-2.21-1.79-4-4-4h-112c-2.21 0-4 1.79-4 4v2.02l59.91 46.13 60.09-45.99z" fill="url(#f)"/><defs><path id="e" d="m-50.59 123.88h-112c-2.21 0-4-1.79-4-4v-72c0-2.21 1.79-4 4-4h112c2.21 0 4 1.79 4 4v72c0 2.21-1.79 4-4 4z"/></defs><clipPath id="a"><use xlink:href="#e"/></clipPath><g clip-path="url(#a)" fill="none" stroke="#FFB300" stroke-miterlimit="10" stroke-width="3"><line x1="-127.58" x2="-170.78" y1="80.64" y2="127.81"/><line x1="-85.71" x2="-42.59" y1="80.53" y2="128"/></g><polyline points="-170.51 47.66 -106.68 96.02 -42.67 47.82" clip-path="url(#a)" fill="none" stroke="#FFB300" stroke-miterlimit="10" stroke-width="3"/><g opacity=".2"><path d="m-50.59 46.88c0.55 0 1 0.45 1 1v72c0 0.55-0.45 1-1 1h-112c-0.55 0-1-0.45-1-1v-72c0-0.55 0.45-1 1-1h112m0-3h-112c-2.21 0-4 1.79-4 4v72c0 2.21 1.79 4 4 4h112c2.21 0 4-1.79 4-4v-72c0-2.21-1.79-4-4-4z" fill="#444"/></g><linearGradient id="d" x1="76.094" x2="76.094" y1="23.5" y2="90.394" gradientUnits="userSpaceOnUse"><stop stop-color="#64B5F6" offset="0"/><stop stop-color="#2196F3" offset=".6645"/></linearGradient><path d="m123.95 95.96h-95.71v-72h69.72c14.36 0 26 11.64 26 26v46z" fill="url(#d)"/><linearGradient id="c" x1="26.388" x2="26.388" y1="23.75" y2="96" gradientUnits="userSpaceOnUse"><stop stop-color="#90CAF9" offset=".3323"/><stop stop-color="#42A5F5" offset="1"/></linearGradient><path d="M48.78,95.96H4V46.35c0-12.36,10.02-22.39,22.39-22.39h0c12.36,0,22.39,10.02,22.39,22.39 V95.96z" fill="url(#c)"/><path d="m37.39 51.62h-22c-1.1 0-2-0.9-2-2v-4c0-1.1 0.9-2 2-2h22c1.1 0 2 0.9 2 2v4c0 1.11-0.9 2-2 2z" fill="#1E88E5"/><g opacity=".2"><path d="m97.95 26.96c12.68 0 23 10.32 23 23v43h-113.95v-46.61c0-10.69 8.7-19.39 19.39-19.39 0.49 0 1.01 0.02 1.6 0.07 0.08 0.01 0.16 0.01 0.24 0.01 0.24 0 0.47-0.03 0.7-0.08h69.02m0-3h-69.71v0.08c-0.61-0.05-1.22-0.08-1.85-0.08-12.37 0-22.39 10.02-22.39 22.39v49.61h119.95v-46c0-14.36-11.64-26-26-26z" fill="#444"/></g><linearGradient id="b" x1="75.361" x2="75.361" y1="15.5" y2="67.502" gradientTransform="matrix(0 1 -1 0 126 -6)" gradientUnits="userSpaceOnUse"><stop stop-color="#EF5350" offset=".2273"/><stop stop-color="#E53935" offset=".7827"/></linearGradient><path d="m118.76 78.39v-18.06c0-3.31-2.69-6-6-6h-3.76c-0.18 0-0.36 0.01-0.53 0.03h-42.56c-1.37 0-2.49 1.11-2.49 2.49v5.02c0 1.37 1.11 2.49 2.49 2.49h37.09v14.04c0 3.31 2.69 6 6 6h3.76c3.31-0.01 6-2.69 6-6.01z" fill="url(#b)"/><g opacity=".2"><path d="m112.76 56.33c2.21 0 4 1.79 4 4v18.07c0 2.21-1.79 4-4 4h-3.76c-2.21 0-4-1.79-4-4v-14.05c0-1.1-0.9-2-2-2h-37.09c-0.27 0-0.49-0.22-0.49-0.49v-5.02c0-0.27 0.22-0.49 0.49-0.49h42.56c0.06 0 0.12 0 0.18-0.01 0.12-0.01 0.24-0.02 0.36-0.02h3.75m0-1.99h-3.76c-0.18 0-0.36 0.01-0.53 0.03h-42.56c-1.37 0-2.49 1.11-2.49 2.49v5.02c0 1.37 1.11 2.49 2.49 2.49h37.09v14.04c0 3.31 2.69 6 6 6h3.76c3.31 0 6-2.69 6-6v-18.07c0-3.32-2.69-6-6-6z" fill="#444"/></g><radialGradient id="i" cx="63.854" cy="56.168" r="14.929" gradientUnits="userSpaceOnUse"><stop stop-color="#ECEFF1" offset="0"/><stop stop-color="#B0BEC5" offset=".6718"/></radialGradient><circle cx="66.85" cy="59.42" r="9" fill="url(#i)"/><g opacity=".2"><path d="m66.85 52.42c3.86 0 7 3.14 7 7s-3.14 7-7 7-7-3.14-7-7 3.14-7 7-7m0-2c-4.97 0-9 4.03-9 9s4.03 9 9 9 9-4.03 9-9-4.03-9-9-9z" fill="#444"/></g></svg>

<?xml version="1.0" encoding="utf-8"?>
<!-- Generator: Adobe Illustrator 24.0.3, SVG Export Plug-In . SVG Version: 6.00 Build 0)  -->
<svg version="1.1" id="Layer_1" xmlns="http://www.w3.org/2000/svg" xmlns:xlink="http://www.w3.org/1999/xlink" x="0px" y="0px"
	 viewBox="0 0 128 128" style="enable-background:new 0 0 128 128;" xml:space="preserve">
<linearGradient id="SVGID_1_" gradientUnits="userSpaceOnUse" x1="63.8" y1="806.0568" x2="63.8" y2="838.7297" gradientTransform="matrix(1 0 0 1 0 -713.8898)">
	<stop  offset="0.2748" style="stop-color:#757575"/>
	<stop  offset="0.9927" style="stop-color:#BDBDBD"/>
</linearGradient>
<rect x="54.8" y="84" style="fill:url(#SVGID_1_);" width="18" height="40"/>
<g style="opacity:0.2;">
	<path style="fill:#444444;" d="M69.8,87v34h-12V87H69.8 M72.8,84h-18v40h18V84z"/>
</g>
<linearGradient id="SVGID_2_" gradientUnits="userSpaceOnUse" x1="76.1" y1="737.3898" x2="76.1" y2="804.2838" gradientTransform="matrix(1 0 0 1 0 -713.8898)">
	<stop  offset="0" style="stop-color:#64B5F6"/>
	<stop  offset="0.6645" style="stop-color:#2196F3"/>
</linearGradient>
<path style="fill:url(#SVGID_2_);" d="M123.9,96H28.2V24H98c14.4,0,26,11.6,26,26L123.9,96L123.9,96z"/>
<linearGradient id="SVGID_3_" gradientUnits="userSpaceOnUse" x1="26.4" y1="737.6398" x2="26.4" y2="809.8898" gradientTransform="matrix(1 0 0 1 0 -713.8898)">
	<stop  offset="0.3323" style="stop-color:#90CAF9"/>
	<stop  offset="1" style="stop-color:#42A5F5"/>
</linearGradient>
<path style="fill:url(#SVGID_3_);" d="M48.8,96H4V46.3C4,34,14,24,26.4,24l0,0c12.4,0,22.4,10,22.4,22.4V96z"/>
<path style="fill:#1E88E5;" d="M37.4,51.6h-22c-1.1,0-2-0.9-2-2v-4c0-1.1,0.9-2,2-2h22c1.1,0,2,0.9,2,2v4
	C39.4,50.7,38.5,51.6,37.4,51.6z"/>
<g style="opacity:0.2;">
	<path style="fill:#444444;" d="M97.9,27c12.7,0,23,10.3,23,23v43H7V46.3C7,35.7,15.7,27,26.4,27c0.5,0,1,0,1.6,0.1
		c0.1,0,0.2,0,0.2,0c0.2,0,0.5,0,0.7-0.1H97.9 M97.9,24H28.2l0,0c-0.6,0-1.2,0-1.8,0C14,24,4,34,4,46.3V96h119.9V50
		C123.9,35.6,112.3,24,97.9,24z"/>
</g>
<linearGradient id="SVGID_4_" gradientUnits="userSpaceOnUse" x1="199.3013" y1="139.3898" x2="199.3013" y2="191.3918" gradientTransform="matrix(0 1 -1 0 249.8898 -130)">
	<stop  offset="0.2273" style="stop-color:#EF5350"/>
	<stop  offset="0.7827" style="stop-color:#E53935"/>
</linearGradient>
<path style="fill:url(#SVGID_4_);" d="M118.8,78.4V60.3c0-3.3-2.7-6-6-6H109c-0.2,0-0.4,0-0.5,0H65.9c-1.4,0-2.5,1.1-2.5,2.5v5
	c0,1.4,1.1,2.5,2.5,2.5H103v14c0,3.3,2.7,6,6,6h3.8C116.1,84.4,118.8,81.7,118.8,78.4z"/>
<g style="opacity:0.2;">
	<path style="fill:#444444;" d="M112.8,56.3c2.2,0,4,1.8,4,4v18.1c0,2.2-1.8,4-4,4H109c-2.2,0-4-1.8-4-4V64.3c0-1.1-0.9-2-2-2H65.9
		c-0.3,0-0.5-0.2-0.5-0.5v-5c0-0.3,0.2-0.5,0.5-0.5h42.6c0.1,0,0.1,0,0.2,0s0.2,0,0.4,0L112.8,56.3 M112.8,54.3H109
		c-0.2,0-0.4,0-0.5,0H65.9c-1.4,0-2.5,1.1-2.5,2.5v5c0,1.4,1.1,2.5,2.5,2.5H103v14c0,3.3,2.7,6,6,6h3.8c3.3,0,6-2.7,6-6v-18
		C118.8,57,116.1,54.3,112.8,54.3z"/>
</g>
<radialGradient id="SVGID_5_" cx="63.854" cy="770.0577" r="14.929" gradientTransform="matrix(1 0 0 1 0 -713.8898)" gradientUnits="userSpaceOnUse">
	<stop  offset="0" style="stop-color:#ECEFF1"/>
	<stop  offset="0.6718" style="stop-color:#B0BEC5"/>
</radialGradient>
<circle style="fill:url(#SVGID_5_);" cx="66.8" cy="59.4" r="9"/>
<g style="opacity:0.2;">
	<path style="fill:#444444;" d="M66.8,52.4c3.9,0,7,3.1,7,7s-3.1,7-7,7s-7-3.1-7-7S63,52.4,66.8,52.4 M66.8,50.4c-5,0-9,4-9,9
		s4,9,9,9s9-4,9-9S71.8,50.4,66.8,50.4z"/>
</g>
</svg>
